X: 1363
T: Molly Put the Kettle On
R:Reel
N:Collected by Mc Namara
B:O'Neill's 1363
Z:Transcribed by Trish O'Neil
M:C|
L:1/8
K:Am
Bded cAAc|Bcdc BGG2|ceed cBAG|EDE^GA2A2|
Bded cAAc|Bcdc BGG2|cBcAB2AG|EDE^GA2A2||
Bde^fg2fg|aged cAA2|Bde^fg2fg|age^ga2a2|
Bde^fg2fg|aged cAA2|ceed cAAG|EDE^GA2A2|]


